src/assets/projects/icontrol/icontrol-logo.svg

<svg height="62" viewBox="0 0 181 62" width="181" xmlns="http://www.w3.org/2000/svg"><g fill="none" fill-rule="evenodd"><ellipse cx="30.872069" cy="31" fill="#6342b1" rx="30.872069" ry="31"/><g fill="#fff"><path d="m16.548288 27.2352941c0-7.9588235 6.6193152-13.8543007 14.7095893-13.8543007s14.7095893 5.8954772 14.7095893 13.8543007c0 14.2294118-14.7095893 22.6197151-14.7095893 22.6197151s-14.7095893-8.3903033-14.7095893-22.6197151zm14.7095893-2.4117647c-2.696758 0-4.9031964 2.1705882-4.9031964 4.8235294s2.2064384 4.8235294 4.9031964 4.8235294 4.9031964-2.1705882 4.9031964-4.8235294-2.2064384-4.8235294-4.9031964-4.8235294z"/><text fill-rule="nonzero" font-family="Lato-Black, Lato" font-size="24" font-weight="800" letter-spacing="2.25"><tspan x="72.812808" y="40.529077">iControl</tspan></text></g></g></svg>

<?xml version="1.0" encoding="UTF-8"?>
<svg width="181px" height="62px" viewBox="0 0 181 62" version="1.1" xmlns="http://www.w3.org/2000/svg" xmlns:xlink="http://www.w3.org/1999/xlink">
    <title>Artboard Copy</title>
    <g id="Artboard-Copy" stroke="none" stroke-width="1" fill="none" fill-rule="evenodd">
        <g id="iControl_logo">
            <g id="Group-2">
                <ellipse id="base" fill="#6342B1" cx="30.8720691" cy="31" rx="30.8720691" ry="31"></ellipse>
                <path d="M16.548288,27.2352941 C16.548288,19.2764706 23.1676032,13.3809934 31.2578773,13.3809934 C39.3481514,13.3809934 45.9674666,19.2764706 45.9674666,27.2352941 C45.9674666,41.4647059 31.2578773,49.8550092 31.2578773,49.8550092 C31.2578773,49.8550092 16.548288,41.4647059 16.548288,27.2352941 Z M31.2578773,24.8235294 C28.5611193,24.8235294 26.3546809,26.9941176 26.3546809,29.6470588 C26.3546809,32.3 28.5611193,34.4705882 31.2578773,34.4705882 C33.9546353,34.4705882 36.1610737,32.3 36.1610737,29.6470588 C36.1610737,26.9941176 33.9546353,24.8235294 31.2578773,24.8235294 L31.2578773,24.8235294 Z" id="Shape" fill="#FFFFFF"></path>
            </g>
            <text id="iControl" fill-rule="nonzero" font-family="Lato-Black, Lato" font-size="24" font-weight="800" letter-spacing="2.25" fill="#FFFFFF">
                <tspan x="72.8128079" y="40.5290765">iControl</tspan>
            </text>
        </g>
    </g>
</svg>
